static/lexicon/images/home/lexicon_symbol.svg

<?xml version="1.0" encoding="UTF-8"?>
<svg width="32px" height="35px" viewBox="0 0 32 35" version="1.1" xmlns="http://www.w3.org/2000/svg" xmlns:xlink="http://www.w3.org/1999/xlink">
    <!-- Generator: Sketch 45.2 (43514) - http://www.bohemiancoding.com/sketch -->
    <title>Group 4</title>
    <desc>Created with Sketch.</desc>
    <defs></defs>
    <g id="Page-1" stroke="none" stroke-width="1" fill="none" fill-rule="evenodd">
        <g id="LSH-00-Copy-34" transform="translate(-272.000000, -64.000000)" stroke="#272833" stroke-width="0.1" fill="#FFFFFF">
            <g id="Group-4" transform="translate(272.000000, 64.000000)">
                <path d="M16.1556704,15.8387992 C15.2970823,15.8394509 14.6005647,16.5445648 14.6005647,17.4152044 L14.6012078,32.8749235 C14.6012078,33.7449115 15.2970823,34.450677 16.1556704,34.450677 C17.0149017,34.450677 17.710133,33.7449115 17.7107761,32.8749235 L17.7107761,17.4152044 C17.7107761,16.5445648 17.0142585,15.8394509 16.1556704,15.8387992" id="Fill-17"></path>
                <path d="M13.0452017,31.0723866 C13.0445586,31.9423746 12.3493273,32.6481401 11.490096,32.6481401 C10.6315079,32.6481401 9.93499029,31.9423746 9.93499029,31.0723866 L9.93499029,28.4076818 C9.93499029,27.5370422 10.6315079,26.8319283 11.490096,26.8312766 C12.3493273,26.8312766 13.0452017,27.5370422 13.0452017,28.4076818 L13.0452017,31.0723866 Z" id="Fill-19"></path>
                <path d="M27.0421822,28.3371053 C27.0421822,29.2070932 26.3463077,29.9122071 25.4864333,29.9122071 C24.6278452,29.9128588 23.9319707,29.2070932 23.9319707,28.3371053 L23.9319707,26.3025716 C23.9319707,25.4319319 24.6278452,24.726818 25.4864333,24.726818 C26.3463077,24.726818 27.0421822,25.4325836 27.0421822,26.3032232 L27.0421822,28.3371053 Z" id="Fill-21"></path>
                <path d="M22.3757074,31.0723866 C22.3763505,31.9423746 21.6798329,32.6481401 20.8206017,32.6481401 C19.9620135,32.6481401 19.2661391,31.9423746 19.2661391,31.0723866 L19.2661391,21.9586922 C19.2661391,21.0880526 19.9620135,20.382287 20.8212448,20.382287 C21.6798329,20.382287 22.3763505,21.0880526 22.3757074,21.9586922 L22.3757074,31.0723866 Z" id="Fill-23"></path>
                <path d="M19.2652387,16.5884877 L19.2658818,17.5966311 L19.2658818,16.5774093 C19.2658818,16.5813193 19.2652387,16.5845777 19.2652387,16.5884877" id="Fill-25"></path>
                <path d="M22.3763505,17.5959143 L22.3757074,16.9885519 L22.3757074,17.598521 C22.3757074,17.5978693 22.3763505,17.5972176 22.3763505,17.5959143" id="Fill-27"></path>
                <path d="M21.0291067,12.9870633 L17.5027855,10.9238559 C16.7618915,10.4904911 15.5495779,10.4904911 14.809327,10.9238559 L11.2823627,12.9870633 C10.5414687,13.4204281 9.93499029,14.483964 9.93499029,15.3506936 L9.93499029,24.1046626 C9.93499029,24.9753023 10.6308647,25.6810678 11.490096,25.6810678 C12.3493273,25.6810678 13.0458449,24.9753023 13.0458449,24.1046626 L13.0458449,16.3822973 C13.0458449,15.9489325 13.3487625,15.4178163 13.7192095,15.2001564 L15.4820485,14.1692043 C15.8524955,13.9515444 16.4583308,13.9515444 16.8287778,14.1692043 L18.5922599,15.2001564 C18.962707,15.4178163 19.2656246,15.9489325 19.2656246,16.3822973 L19.2656246,17.5963705 C19.2656246,18.4663584 19.9621421,19.172124 20.8207303,19.172124 C21.6786753,19.172124 22.3745497,18.4676618 22.375836,17.5983255 L22.375836,15.3506936 C22.375836,14.483964 21.7700008,13.4204281 21.0291067,12.9870633" id="Fill-29"></path>
                <path d="M21.2385765,2.19243489 L21.1909844,2.1644128 L19.5226865,1.18885324 C17.6704514,0.105115402 14.6406321,0.105115402 12.788397,1.18885324 L3.97098624,6.34687189 C2.11875114,7.42930638 0.603519934,10.0887977 0.603519934,12.2556217 L0.603519934,14.0992143 C0.626672873,14.9066413 1.31290025,15.5544076 2.15862565,15.5544076 C3.00499418,15.553756 3.6918647,14.9059896 3.71373136,14.0985626 C3.7143745,14.0855291 3.71373136,13.2872255 3.71373136,13.2872255 C3.71373136,11.5537663 4.92604495,9.42669453 6.40718989,8.55996492 L13.4617617,4.43289833 C14.9435497,3.56616872 17.3675338,3.56616872 18.8493219,4.43289833 L19.57671,4.85909469 L19.7792982,4.97769979 C19.9857453,5.08001299 20.2159884,5.13736051 20.4597374,5.13736051 C21.3208981,5.13736051 22.0180588,4.4309433 22.0180588,3.55900028 C22.0180588,2.97444656 21.7042078,2.4654873 21.2385765,2.19243489" id="Fill-31"></path>
                <path d="M31.7068562,12.2558824 C31.7068562,10.0890584 30.1922681,7.42956705 28.3406761,6.34713256 L24.8722373,4.31781228 C24.664504,4.21354405 24.4310452,4.15358983 24.1834374,4.15358983 C23.3229198,4.15358983 22.6257591,4.86065871 22.6257591,5.73260173 C22.6257591,6.3047736 22.9261042,6.80395772 23.3750139,7.08092018 L25.9031862,8.55957392 C27.3843311,9.42630352 28.5966447,11.5540269 28.5966447,13.2868345 L28.5972879,20.0890327 C28.5972879,20.9590206 29.2931623,21.6647862 30.1517504,21.6654379 C31.0109817,21.6647862 31.7081424,20.9596723 31.7068562,20.0890327 L31.7068562,12.2558824 Z" id="Fill-33"></path>
                <path d="M3.7143745,23.0327201 C3.71373136,23.9027081 3.01785693,24.6078219 2.15862565,24.6084736 C1.30003751,24.6084736 0.603519934,23.9027081 0.603519934,23.0327201 L0.603519934,18.4116828 C0.603519934,17.5410431 1.30003751,16.8352776 2.15862565,16.8352776 C3.01785693,16.8352776 3.71373136,17.5410431 3.71373136,18.4110311 L3.7143745,23.0327201 Z" id="Fill-35"></path>
                <path d="M24.3478232,9.46970517 L18.8490003,6.25303049 C17.3678554,5.38630089 14.9432282,5.38630089 13.4620832,6.25303049 L12.2034638,6.98942482 C11.7725619,7.27029734 11.4870089,7.75905464 11.4870089,8.31623795 C11.4870089,9.18883264 12.1841697,9.89524985 13.0446872,9.89524985 C13.3019421,9.89524985 13.5437617,9.83138557 13.7572832,9.7199489 L14.8094556,9.10411471 C15.5503497,8.67074991 16.7620201,8.67074991 17.5029142,9.10411471 L22.5849842,12.0777141 C23.3252351,12.5104272 23.9317135,13.5746148 23.9317135,14.4413444 C23.9317135,14.4413444 23.9310703,18.9835288 23.9310703,18.9874389 L23.9310703,21.9408363 C23.9310703,22.811476 24.6269448,23.5172415 25.4861761,23.5178932 C26.090725,23.5172415 26.6123093,23.1679429 26.8708504,22.6570287 C26.9795406,22.4426271 27.0419249,22.1989002 27.0419249,21.941488 L27.0419249,14.1969657 C27.0419249,12.4641582 25.8302544,10.3364348 24.3478232,9.46970517" id="Fill-37"></path>
                <path d="M9.32581075,8.91408588 C9.06662647,8.91408588 8.82287747,8.97925352 8.60742652,9.09329688 L7.96300306,9.46996584 C6.48185812,10.3366954 5.26954453,12.4637672 5.26954453,14.1972264 L5.26954453,28.3373008 C5.26890139,29.2072888 5.96541896,29.9130543 6.82465024,29.9130543 C7.68323838,29.9130543 8.37911281,29.2072888 8.37911281,28.3373008 L8.37975595,14.441605 C8.37975595,13.5742238 8.98623432,12.5106879 9.72712835,12.0773231 C9.72712835,12.0773231 10.1432381,11.8388095 10.1985479,11.801664 C10.6127283,11.5175331 10.8841322,11.0378992 10.8841322,10.4937495 C10.8841322,9.62050309 10.1863283,8.91408588 9.32581075,8.91408588" id="Fill-39"></path>
            </g>
        </g>
    </g>
</svg>

<svg width="32" height="35" xmlns="http://www.w3.org/2000/svg"><g stroke="#272833" stroke-width=".1" fill="#FFF" fill-rule="evenodd"><path d="M16.156 15.839c-.859 0-1.555.706-1.555 1.576v15.46c0 .87.696 1.576 1.555 1.576s1.554-.706 1.555-1.576v-15.46c0-.87-.697-1.576-1.555-1.576m-3.11 15.233c-.001.87-.697 1.576-1.556 1.576a1.566 1.566 0 0 1-1.555-1.576v-2.664c0-.871.697-1.576 1.555-1.577.86 0 1.555.706 1.555 1.577v2.664zm13.996-2.735c0 .87-.696 1.575-1.556 1.575a1.564 1.564 0 0 1-1.554-1.575v-2.034c0-.871.696-1.576 1.554-1.576.86 0 1.556.706 1.556 1.576v2.034zm-4.666 2.735c0 .87-.696 1.576-1.555 1.576a1.565 1.565 0 0 1-1.555-1.576V21.96c0-.87.696-1.577 1.555-1.577s1.555.706 1.555 1.577v9.113zm-3.11-14.484v1.009-1.02.011m3.11 1.008v-.607.607"/><path d="M21.03 12.987l-3.527-2.063c-.741-.434-1.953-.434-2.694 0l-3.527 2.063c-.74.433-1.347 1.497-1.347 2.364v8.754c0 .87.696 1.576 1.555 1.576.86 0 1.556-.706 1.556-1.576v-7.723c0-.433.303-.964.673-1.182l1.763-1.03c.37-.218.976-.218 1.347 0l1.763 1.03c.37.218.674.749.674 1.182v1.214c0 .87.696 1.576 1.555 1.576.858 0 1.554-.704 1.555-1.574v-2.247c0-.867-.606-1.93-1.347-2.364m.21-10.795l-.048-.028-1.668-.975c-1.853-1.084-4.882-1.084-6.735 0L3.971 6.347C2.119 7.429.604 10.089.604 12.256v1.843c.023.808.709 1.455 1.555 1.455s1.533-.648 1.555-1.455v-.812c0-1.733 1.212-3.86 2.693-4.727l7.055-4.127c1.482-.867 3.906-.867 5.387 0l.728.426.202.119c.207.102.437.16.68.16.862 0 1.56-.707 1.56-1.579a1.58 1.58 0 0 0-.78-1.367m10.468 10.064c0-2.167-1.515-4.826-3.366-5.909l-3.469-2.03a1.53 1.53 0 0 0-.689-.163c-.86 0-1.557.707-1.557 1.579 0 .572.3 1.071.749 1.348l2.528 1.479c1.481.866 2.694 2.994 2.694 4.727v6.802c0 .87.696 1.576 1.555 1.576s1.556-.705 1.555-1.576v-7.833zM3.714 23.033c0 .87-.696 1.575-1.555 1.575a1.566 1.566 0 0 1-1.555-1.575v-4.621c0-.871.696-1.577 1.555-1.577s1.555.706 1.555 1.576v4.622z"/><path d="M24.348 9.47l-5.499-3.217c-1.481-.867-3.906-.867-5.387 0l-1.259.736c-.43.281-.716.77-.716 1.327 0 .873.697 1.58 1.558 1.58.257 0 .499-.065.712-.176l1.052-.616c.741-.433 1.953-.433 2.694 0l5.082 2.974c.74.432 1.347 1.497 1.347 2.363v7.5c0 .87.695 1.576 1.554 1.577.605 0 1.126-.35 1.385-.861a1.58 1.58 0 0 0 .17-.716v-7.744c0-1.733-1.21-3.86-2.693-4.727M9.326 8.914c-.26 0-.503.065-.719.18l-.644.376c-1.481.867-2.693 2.994-2.693 4.727v14.14c-.001.87.695 1.576 1.555 1.576.858 0 1.554-.706 1.554-1.576V14.442c0-.868.607-1.931 1.348-2.365 0 0 .416-.238.472-.275.414-.284.685-.764.685-1.308 0-.873-.698-1.58-1.558-1.58"/></g></svg>
